!!!COM: Joplin, Scott
!!!CDT: 1868/11/24-1917/04/01
!!!OTL: Augustan Club Waltz
!!!ODT: 1901
!!!OMD: Moderato
!!!AGN: Waltz
**kern	**kern	**dynam
*staff2	*staff1	*staff1/2
*Ipiano	*Ipiano	*Ipiano
*>[I,A,A1,A,A2,B,B1,B,B2,C,C1,C,C2,D,D1,D,D2,E]	*>[I,A,A1,A,A2,B,B1,B,B2,C,C1,C,C2,D,D1,D,D2,E]	*>[I,A,A1,A,A2,B,B1,B,B2,C,C1,C,C2,D,D1,D,D2,E]
*>norep[I,A,A2,B,B2,C,C2,D,D2,E]	*>norep[I,A,A2,B,B2,C,C2,D,D2,E]	*>norep[I,A,A2,B,B2,C,C2,D,D2,E]
*>I	*>I	*>I
*clefF4	*clefG2	*clefG2
*k[b-e-]	*k[b-e-]	*k[b-e-]
*M3/4	*M3/4	*M3/4
*MM152	*MM152	*MM152
=1-	=1-	=1-
*	*tremolo	*
2d B- F	16b-L	f
.	16bb-	.
.	16b-	.
.	16bb-	.
.	16b-	.
.	16bb-	.
.	16b-	.
.	16bb-	.
4f B- A-	16b-	.
.	16bb-	.
.	16b-	.
.	16bb-J	.
=2	=2	=2
2en B- G	16b-L	.
.	16bb-	.
.	16b-	.
.	16bb-	.
.	16b-	.
.	16bb-	.
.	16b-	.
.	16bb-	.
4e- B- G-	16b-	>
.	16bb-	.
.	16b-	.
.	16bb-J	]
*	*Xtremolo	*
=3	=3	=3
.	(8qb-	.
4d B- F	4bb-)	.
4r	4r	.
4r	4r	.
=4	=4	=4
4BB- BBB-	4bbb-: fff: ddd: bb-:	>
4r	4r	]
4r	4r	.
!!LO:LB:g=original
=5!|:	=5!|:	=5!|:
*>A	*>A	*>A
!!!OMD: Tempo di Valse.
!	!	!LO:DY:t=%s dolce
4BB-	[2.f	p
4d B- F	.	.
4d B- F	.	.
=6	=6	=6
4FF	4f]	.
4d B- F	4g	.
4d B- F	4f	.
=7	=7	=7
*	*^	*
4BB-	4r	[2.b-	.
4d B- F	8ffL	.	.
.	8een	.	.
4d B- F	8gg	.	.
.	8ffJ	.	.
=8	=8	=8	=8
4FF	8ddL	4b-]	.
.	8b-	.	.
4d B- F	8g	4r	.
.	8b-J	.	.
4d B- F	4f	4r	.
*	*v	*v	*
=9	=9	=9
4BB-	[2.dd	.
4d B- F	.	.
4d B- F	.	.
=10	=10	=10
4FF	4dd]	.
4d B- F	4cc	.
4d B- F	4b-	.
=11	=11	=11
*	*^	*
4C	4rff	[2.e-	.
4e- A F	8ffL	.	.
.	8aa	.	.
4e- A F	8ccc	.	.
.	8aaJ	.	.
=12	=12	=12	=12
4FF	8ffL	4e-]	.
.	8ee-	.	.
4e- A F	8cc	4r	.
.	8aJ	.	.
4e- A F	4f	4r	.
*	*v	*v	*
!!LO:LB:g=original
=13	=13	=13
4C	[2.e-	.
4c A F	.	.
4c A F	.	.
=14	=14	=14
4FF	4e-]	.
4c A F	4f	.
4c A F	4e-	.
=15	=15	=15
*	*^	*
4C	4raa	[2.a	.
4e- A F	8ffL	.	.
.	8aa	.	.
4e- A F	8ccc	.	.
.	8aaJ	.	.
=16	=16	=16	=16
4FF	8ffL	4a]	.
.	8ee-	.	.
4e- A F	8cc	4r	.
.	8aJ	.	.
4e- A F	4f	4r	.
*	*v	*v	*
=17	=17	=17
4AA	[2.cc	.
4e- c F	.	.
4e- c F	.	.
=18	=18	=18
4FF	4cc]	.
4e- c F	4b-	.
4e- c F	4a	.
=19	=19	=19
*	*^	*
4BB-	4r	[2.d	.
4d B- F	8b-L	.	.
.	8cc	.	.
4d B- F	8dd	.	.
.	8ee-J	.	.
=20	=20	=20	=20
4FF	8ffL	4d]	.
.	8dd	.	.
4d B- F	8bb-	4r	.
.	8ffJ	.	.
4d B- F	4dd	4r	.
*	*v	*v	*
!!LO:LB:g=original
=21	=21	=21
4BB-	[2.f	.
4d B- F	.	.
4d B- F	.	.
=22	=22	=22
4FF	4f]	.
4d B- F	4g	.
4d B- F	4f	.
=23	=23	=23
*	*^	*
4BB-	4r	[2.b-	.
4d B- F	8ffL	.	.
.	8een	.	.
4d B- F	8gg	.	.
.	8ffJ	.	.
=24	=24	=24	=24
4FF	8ddL	4b-]	.
.	8b-	.	.
4d B- F	8g	4r	.
.	8b-J	.	.
4d B- F	4f	4r	.
*	*v	*v	*
=25	=25	=25
4GG	[2.bn	<
4f d G	.	.
4f d G	.	.
=26	=26	=26
4BBn	4bnX]	.
4f d G	4dd	.
4f d G	4ff	.
=27	=27	=27
*	*^	*
4C	4r	[2.ee-	.
4e- c G	8ff#L	.	.
.	8gg	.	.
4e- c G	8aa-	.	.
.	8ggJ	.	.
=28	=28	=28	=28
4E-	8cccL	4ee-]	.
.	8gg	.	.
4e- c G	8eee-	4r	.
.	8cccJ	.	[
4e- c G	4gg	4r	>
*	*v	*v	*
=29	=29	=29
*^	*	*
4r	2.En	[2.b-	] p
4c# B- G	.	.	.
4c# B- G	.	.	.
*v	*v	*	*
!!LO:LB:g=original
=30	=30	=30
4En	4b-]	.
4c# B- G	4en	.
4c# B- G	4g	.
=31	=31	=31
*	*^	*
4F	4r	[2.f	.
4d B-	8ddL	.	.
.	8ee-	.	.
4d B-	8dd	.	.
.	8b-J	.	.
=32	=32	=32	=32
4F	8ddL	4f]	.
.	8ee-	.	.
4d B-	8ff	4r	.
.	8ggJ	.	.
4d B-	4ff	4r	.
*	*v	*v	*
=33	=33	=33
4C	[2.g	.
4en c B- G	.	.
4e c B- G	.	.
=34	=34	=34
4FF	4g]	.
4e-X c F	4a	.
4e- A F	4cc	.
=35	=35	=35
*>A1	*>A1	*>A1
*	*^	*
4B- BB-	4r	[2.b-	.
4F	(8ddL	.	.
.	8ee-	.	.
4D	8een	.	.
.	8ffJ)	.	.
=36	=36	=36	=36
4BB-	4bb-	4b-]	.
.	.	(<8qcc#	.
4r	4rccc	4dd)	.
.	.	(<8qcc#	.
4r	4rccc	4dd)	.
=37:|!	=37:|!	=37:|!	=37:|!
*	*v	*v	*
*>A2	*>A2	*>A2
*	*^	*
4B- BB-	8r	[2.b-	<
.	8ddL b-	.	.
4F	8dd b-	.	.
.	8ff dd	.	.
4D	8ff dd	.	.
.	8bb-J dd	.	.
=38	=38	=38	=38
4BB-	4bb- dd	4b-]	.
4r	2ryy	4r	[
4r	.	4bb-	.
*	*v	*v	*
!!LO:LB:g=original
=39!|:	=39!|:	=39!|:
*>B	*>B	*>B
*^	*	*
4r	2.E-	(8cccL	f
.	.	8bb-	.
4c G	.	8aa	.
.	.	8bb-	.
4c G	.	8aa	.
.	.	8bb-J	.
=40	=40	=40	=40
4r	2.F	8aaL	.
.	.	8gg	.
4e- c A	.	8ff	.
.	.	8ee-	.
4e- c A	.	8dd	.
.	.	8ccJ)	.
*v	*v	*	*
=41	=41	=41
4BB-	(8ddL<	.
.	8f	.
4d B- F	8g	.
.	8a	.
4d B- F	8b-	.
.	8ccJ	.
=42	=42	=42
4FF	8ddL	.
.	8ee-	.
4d B- F	8ff	.
.	8ggJ	.
4d B- F	4ff)	.
=43	=43	=43
4C	8aaL ee- a	.
.	8aaJ ee- a	.
4e- c F	4.aa ee- a	.
4e- c F	.	.
.	8bb- ee- b-	.
=44	=44	=44
4FF	8cccL ee- cc	.
.	8cccJ ee- cc	.
4e- A F	4.ccc ee- cc	.
4e- A F	.	.
.	8ccc# een cc#	.
!!LO:LB:g=original
=45	=45	=45
4BB-	8dddL ff dd	.
.	8dddJ ff dd	.
4d B- F	4ddd ff dd	.
4d B- F	[4fff [ddd [ff	.
=46	=46	=46
4D	2fff] ddd] ff]	.
4d B- F	.	.
4d B- F	4bb-	.
=47	=47	=47
*^	*	*
4r	2.E-	(8cccL	.
.	.	8bb-	.
4c G	.	8aa	.
.	.	8bb-	.
4c G	.	8aa	.
.	.	8bb-J	.
=48	=48	=48	=48
4r	2.F	8aaL	.
.	.	8gg	.
4e- c A	.	8ff	.
.	.	8ee-	.
4e- c A	.	8dd	.
.	.	8ccJ)	.
*v	*v	*	*
=49	=49	=49
4BB-	(8ddL<	.
.	8f	.
4d B- F	8g	.
.	8a	.
4d B- F	8b-	.
.	8ccJ	.
=50	=50	=50
4FF	8ddL	.
.	8ee-	.
4d B- F	8ff	.
.	8ggJ	.
4d B- F	4ff)	.
=51	=51	=51
4AA	(8ffL	.
.	8een	.
4f d A	8ff	.
.	8dd	.
4f d A	8a	.
.	8ffJ	.
!!LO:LB:g=original
=52	=52	=52
4AA	8eenL	.
.	8a	.
4g c# A	8aa	.
.	8gg	.
4g c# A	8ff	.
.	8eeJ	.
=53	=53	=53
4f d	4dd)	.
.	(8qccc#	.
4B- BB-	4ddd)	.
.	(8qccc#	.
4A AA	4ddd)	.
=54	=54	=54
4D^ DD	4ddd^ aa ff dd	.
4r	4r	.
4r	4bb-	.
=55	=55	=55
*^	*	*
4r	2.E-	(8cccL	.
.	.	8bb-	.
4c G	.	8aa	.
.	.	8bb-	.
4c G	.	8aa	.
.	.	8bb-J	.
=56	=56	=56	=56
4r	2.F	8aaL	.
.	.	8gg	.
4e- c A	.	8ff	.
.	.	8ee-	.
4e- c A	.	8dd	.
.	.	8ccJ)	.
*v	*v	*	*
=57	=57	=57
4BB-	(8ddL<	.
.	8f	.
4d B- F	8g	.
.	8a	.
4d B- F	8b-	.
.	8ccJ	.
=58	=58	=58
4FF	8ddL	.
.	8ee-	.
4d B- F	8ff	.
.	8ggJ	.
4d B- F	4ff)	.
!!LO:LB:g=original
=59	=59	=59
4C	8aaL ee- a	.
.	8aaJ ee- a	.
4e- c F	4.aa ee- a	.
4e- c F	.	.
.	8bb- ee- b-	.
=60	=60	=60
4FF	8cccL ee- cc	.
.	8cccJ ee- cc	.
4e- A F	4.ccc ee- cc	.
4e- A F	.	.
.	8ccc# een cc#	.
=61	=61	=61
4BB-	8dddL ff dd	.
.	8dddJ ff dd	.
4d B- F	4ddd ff dd	.
4d B- F	[4fff [ddd [ff	.
=62	=62	=62
4D	4.fff] ddd] ff]	.
4d B- F	.	.
.	(8dddL	.
4d B- F	8bb-	.
.	8ffJ)	.
=63	=63	=63
*^	*	*
4r	2.E-	(8ff#L	.
.	.	8gg	.
4c G	.	8aa	.
.	.	8gg	.
4c G	.	8ccc	.
.	.	8eee-J)	.
=64	=64	=64	=64
4r	2.En	2.ggg gg	.
4c# B- G	.	.	.
4c# B- G	.	.	.
*v	*v	*	*
=65	=65	=65
4F	(8gggL	.
.	8fff	.
4d B-	8ddd	.
.	8bb-	.
4d B-	8gg	.
.	8ffJ)	.
!!LO:LB:g=original
=66	=66	=66
4F	2ddd ff	.
4d B-	.	.
4d B-	4ddd ff	.
=67	=67	=67
4C	(8dddL	.
.	8een	.
4en c B- G	8gg	.
.	8bb-	.
4e c B- G	8ddd	.
.	8ggJ)	.
=68	=68	=68
4FF	(8cccL	.
.	8ee-X	.
4e-X A F	8ff	.
.	8aa	.
4e- A F	8ccc	.
.	8ffJ)	.
=69	=69	=69
*>B1	*>B1	*>B1
4B- BB-	[2.bb- [dd	.
4F	.	.
4D	.	.
=70	=70	=70
4BB-	4bb-] dd]	.
.	(8qeen	.
4r	4ff)	.
4r	4bb-	.
=71:|!	=71:|!	=71:|!
*>B2	*>B2	*>B2
*	*^	*
4B- BB-	4r	[>2.bb- [dd	.
4F	8ddL	.	.
.	8ee-	.	.
4D	8een	.	.
.	8ffJ	.	.
*	*v	*v	*
=72	=72	=72
4BB-	4bb-] dd]	>
4r	(4b-	.
4r	4g)	]
!!LO:LB:g=original
=73!|:	=73!|:	=73!|:
*>C	*>C	*>C
4GG	[2.d	p
4B- G D	.	.
4B- G D	.	.
=74	=74	=74
4DD	4.d]	.
4B- G D	.	.
.	8dL	.
4B- G D	8g	.
.	8b-J	.
=75	=75	=75
4GG	2dd b- g d	.
4B- G D	.	.
4B- G D	[4dd [b- [g [d	.
=76	=76	=76
4BB-	4.dd] b-] g] d]	.
4B- G D	.	.
.	8gL	.
4B- G D	8b-	.
.	8ddJ	.
=77	=77	=77
4C	[2.gg [ee- [cc [g	.
4c G E-	.	.
4c G E-	.	.
=78	=78	=78
4C	4.gg] ee-] cc] g]	.
4c G E-	.	.
.	8ggL ee-	.
4c G E-	8ff dd	.
.	8ee-J cc	.
!!LO:LB:g=original
=79	=79	=79
4GG	2dd b-	.
4B- G D	.	.
4B- G D	[4dd: [b-: [g:	.
=80	=80	=80
4DD	4.dd] b-] g]	.
4B- G D	.	.
.	8ddL b-	.
4B- G D	8cc a	.
.	8b-J g	.
=81	=81	=81
4D	[2.a [f#	.
4d c F#	.	.
4d c F#	.	.
=82	=82	=82
4DD	4.a] f#X]	.
4d c F#	.	.
.	8ccL a	.
4d c F#	8b- g	.
.	8aJ f#	.
=83	=83	=83
4GG	2g	.
4d B- G	.	.
4d B- G	[4g	.
=84	=84	=84
4BB-	4.g]	.
4d B- G	.	.
.	(8f#L	.
4d B- G	8g	.
.	8aJ)	.
=85	=85	=85
4E- EE-	[2.b- [g	<
4e- B- G	.	.
4e- B- G	.	[[
!!LO:LB:g=original
=86	=86	=86
4E- EE-	4.b-\] g]	<
4e- B- G	.	.
.	8b-L< g	.
4E- EE-	8cc a g	.
.	8cc#J a g	.
=87	=87	=87
*	*^	*
4D DD	2ryy	4dd\ a f#	[
4r	.	4r	.
4E- EE-	8bb-L	4gg cc#	.
.	8aaJ	.	.
*	*v	*v	*
=88	=88	=88
4D DD	4ddd^ aa ff# dd	>
4r	4r	.
4r	4r	]
=89	=89	=89
4GG	[2.d	p
4B- G D	.	.
4B- G D	.	.
=90	=90	=90
4DD	4.d]	.
4B- G D	.	.
.	8dL	.
4B- G D	8g	.
.	8b-J	.
=91	=91	=91
4GG	2dd b- g d	.
4B- G D	.	.
4B- G D	[4dd [b- [g [d	.
=92	=92	=92
4BB-	4.dd] b-] g] d]	.
4B- G D	.	.
.	8gL	.
4B- G D	8b-	.
.	8ddJ	.
!!LO:LB:g=original
=93	=93	=93
4C	[2.gg [ee- [cc [g	.
4c G E-	.	.
4c G E-	.	.
=94	=94	=94
4C	4.gg] ee-] cc] g]	.
4c G E-	.	.
.	8ggL ee-	.
4c G E-	8ff dd	.
.	8ee-J cc	.
=95	=95	=95
4GG	2dd b-	.
4B- G D	.	.
4B- G D	[4dd: [b-: [g:	.
=96	=96	=96
4GG	4.dd] b-] g]	.
4B- G D	.	.
.	8gL	.
4B- G D	8b-	.
.	8ddJ	.
=97	=97	=97
4C	[2.gg [ee- [cc [g	.
4c G E-	.	.
4c G E-	.	.
=98	=98	=98
4C	4.gg] ee-] cc] g]	.
4c G E-	.	.
.	8ggL ee-	.
4c G E-	8ff dd	.
.	8ee-J cc	.
=99	=99	=99
4GG	2dd b-	.
4B- G D	.	.
4B- G D	[4dd: [b-: [g:	.
!!LO:LB:g=original
=100	=100	=100
4DD	4.dd] b-] g]	.
4B- G D	.	.
.	8bb-L	.
4B- G D	8gg	.
.	8ddJ	.
=101	=101	=101
4AA	2ee-/ cc f#	.
4d c F#	.	.
4d c F#	[4dd [cc [f#	.
=102	=102	=102
4DD	4.dd] cc] f#X]	.
4d c F#	.	.
.	8ccL	.
4d c F#	8a	.
.	8b-J	.
=103	=103	=103
*>C1	*>C1	*>C1
4d B- G	[2.g	.
4E- EE-	.	.
4D DD	.	.
=104	=104	=104
4GG GGG	4g]	.
4r	(4b-	.
4r	4g)	.
=105:|!	=105:|!	=105:|!
*>C2	*>C2	*>C2
2.d B- G	2.g	<
=106	=106	=106
2.F^ FF	2.b- a- d B-	[
!!LO:LB:g=original
=107!|:	=107!|:	=107!|:
*>D	*>D	*>D
*	*^	*
2.E- EE-	4re	2.b-/ B-	mf
.	4g\ e-	.	.
.	4g\ e-	.	.
=108	=108	=108	=108
2.E- EE-	2.cc c	4rf	.
.	.	4g- e-	.
.	.	4g- e-	.
=109	=109	=109	=109
2.BB- BBB-	4rB	[>2.f/ [F	.
.	4d\ B-	.	.
.	4d\ B-	.	.
=110	=110	=110	=110
2.D DD	2.f] F]	4rB	.
.	.	4d B-	.
.	.	4d B-	.
=111	=111	=111	=111
2.E- EE-	2.b- B-	4re	.
.	.	4g e-	.
.	.	4g e-	.
=112	=112	=112	=112
2.E- EE-	2b- B-	4re	.
.	.	4g- e-	.
.	4cc c	4g- e-	.
=113	=113	=113	=113
2.BB- BBB-	[2.dd [<d	4rg	.
.	.	4b- f	.
.	.	4b- f	.
=114	=114	=114	=114
2.D DD	4rg	2.dd/] d]	.
.	4b-\ f	.	.
.	4b-\ f	.	.
!!LO:LB:g=original
=115	=115	=115	=115
2.E- EE-	2.b- B-	4re	.
.	.	4g e-	.
.	.	4g e-	.
=116	=116	=116	=116
2.E- EE-	2.cc c	4rf	.
.	.	4g- e-	.
.	.	4g- e-	.
=117	=117	=117	=117
2.D DD	2.f F	4rB	.
.	.	4d B-	.
.	.	4d B-	.
=118	=118	=118	=118
2.D- DD-	2.g G	4rc	<
.	.	4d- B-	.
.	.	4d- B-	.
=119	=119	=119	=119
2.C CC	2a A	4rd	.
.	.	4f c	.
.	4cc c	4a f	.
=120	=120	=120	=120
2G GG	2dd d	4rg	.
.	.	4bn f	.
4C CC	4een en	4b- g	[[
=121	=121	=121	=121
4F FF	[2.ff [<f	4rb	>
4C	.	4cc a	.
4AA	.	4cc a	.
=122	=122	=122	=122
4FF	4ff] f]	4cc a	]
4r	4r	4r	.
4r	4r	4r	.
!!LO:LB:g=original
=123	=123	=123	=123
2.E- EE-	2.b- B-	4re	mf
.	.	4g e-	.
.	.	4g e-	.
=124	=124	=124	=124
2.E- EE-	2.cc c	4rf	.
.	.	4g- e-	.
.	.	4g- e-	.
=125	=125	=125	=125
2.BB- BBB-	[2.f [<F	4rB	.
.	.	4d B-	.
.	.	4d B-	.
=126	=126	=126	=126
2.D DD	2.f] F]	4rB	.
.	.	4d B-	.
.	.	4d B-	.
=127	=127	=127	=127
2.E- EE-	2.b- B-	4re	.
.	.	4g e-	.
.	.	4g e-	.
=128	=128	=128	=128
2.E- EE-	2b- B-	4re	.
.	.	4g- e-	.
.	4cc c	4g- e-	.
=129	=129	=129	=129
2.BB- BBB-	[2.dd [<d	4rg	.
.	.	4b- f	.
.	.	4b- f	.
=130	=130	=130	=130
2.D DD	4rg	2.dd/] d/]	.
.	4b- f	.	.
.	4b- f	.	.
*	*v	*v	*
=131	=131	=131
*^	*	*
4r	2.E- EE-	2.gg ee- g	<
4e- B- G	.	.	.
4e- B- G	.	.	[[
!!LO:LB:g=original
=132	=132	=132	=132
4r	2.En EEn	4bb- dd- b-	.
4c# B- G E	.	4aa dd- a	.
4c# B- G E	.	4gg dd- g	.
=133	=133	=133	=133
4r	2.F FF	2.ff ddn f	.
4d B- F	.	.	.
4d B- F	.	.	.
*v	*v	*	*
=134	=134	=134
4GG	2ee- bn f	.
4Bn G	.	.
4B G	4dd b f	.
=135	=135	=135
4C	2.dd\ b-X g en	.
4c B-X G	.	.
4c B- G	.	.
=136	=136	=136
4FF	2.cc a f e-X	.
4A F	.	.
4A F	.	.
=137	=137	=137
*>D1	*>D1	*>D1
4B- BB-	[2.b- [f [d	.
4F	.	.
4D	.	.
=138	=138	=138
4BB-	4b-] f] d]	>
4r	(4d	.
4r	4f)	]]
=139:|!	=139:|!	=139:|!
*>D2	*>D2	*>D2
4B- BB-	4b- f d	.
4D DD	4dd d	.
4E- EE-	4ee- e-	.
=140	=140	=140
4F FF	4ff f	<
4G GG	4gg g	.
4A/ AA	4aa a	[[
!!LO:LB:g=original
=141||	=141||	=141||
*>E	*>E	*>E
4B- BB-	4bb- b-	.
4g- G-	4ggg- gg-	.
4f F	4fff ff	.
=142	=142	=142
4d- D-	4ddd- dd-	.
4B- BB-	4bb- b-	.
4G-\ GG-\	4gg- g-	.
=143	=143	=143
4F FF	4ff f	.
4r	4r	.
4F FF	4ff ee- a	.
=144	=144	=144
4B- BB-	4bb- ff dd b-	.
4r	4r	.
4r	4r	.
=145	=145	=145
4f: d: B-:	4ddd bb-: ff dd	.
4r	4r	.
4r	4r	.
=146	=146	=146
4B- BB-	4bb- ff dd b-	.
4r	4r	.
4r	4r	.
=147	=147	=147
2.G-; BB-;	2.b-; e-; B-;	.
=148	=148	=148
8qBB-/ F	8qB- d b-	.
2.F; BB-;	2.b-; d; B-;	ff
==	==;	==
*-	*-	*-
!!!RDF**kern: > = above
!!!RDF**kern: < = below
!!!URL-vhv: https://verovio.humdrum.org/?file=joplin/augustan.krn
!!!URL-pdf-original: https://github.com/craigsapp/joplin/blob/master/reference-edition/augustan.pdf
!!!ENC: Craig Stuart Sapp
!!!END: 2005/02/05
!!!EED: Craig Stuart Sapp
!!!EEV: 2021/06/26
!!!YEC: 2021 Craig Stuart Sapp
!!!URL: https://github.com/craigsapp/joplin
!!!YEM: Licence: (CC BY-NC-SA 4.0) https://creativecommons.org/licenses/by-nc-sa/4.0
!!!YER: 2021
